X:79
T:Concerto in B flat Op.7 No.3 - Allegro
C:Albinoni, T.
M:4/4
L:1/8
Q:1/4=120
K:Bb
|:F2|B4 cd e2|d2 cB A2 G2|F4 GA B2|c4 B2 F2|
G4 AB c2|B2 AG F2 E2|F4 EF G2|F4 F2:|

